;FLAVOR:RepRap
;TIME:37
G21 ;metric values
G90 ;absolute positioning
M302 ;run nozzle cold
M82 ;set extruder to absolute mode
M107 ;start with the fan off
G28 X0 Y0 ;move X/Y to min endstops
G28 Z0 ;move Z to min endstops
G1 Z15.0 F9000 ;move the platform down 15mm
G92 E0 ;zero the extruded length
G1 F200 E6 ;extrude 6 mm of feed stock
G92 E0 ;zero the extruded length again
G1 F9000
;Put printing message on LCD screen
M117 Printing...
;Generated with Cura_SteamEngine 2.1.2
;LAYER_COUNT:1
;LAYER:0
M107
G1 F1500.00 E-6.50000
G1 F7200.0

G0 X159.167 Y1.250
G1 X159.167 Y1.250 E0.000
G1 X160.000 Y4.583 E4.123
G1 X161.667 Y7.500 E8.154
G1 X163.750 Y10.833 E12.871
G1 X166.250 Y14.583 E18.280
G1 X168.333 Y17.917 E22.997
G1 X170.000 Y21.250 E27.469
G1 X172.083 Y24.583 E32.186
G1 X174.167 Y28.333 E37.333


G0 X198.333 Y32.500
G1 X198.333 Y32.500 E37.333
G1 X195.000 Y35.417 E42.649
G1 X191.667 Y40.000 E49.449
G1 X188.333 Y43.333 E55.106
G1 X184.583 Y48.333 E62.606
G1 X181.250 Y53.750 E70.238
G1 X177.500 Y60.000 E78.985
G1 X174.167 Y65.417 E86.617
G1 X170.417 Y72.083 E95.796
G1 X167.083 Y78.750 E104.740


G0 X173.750 Y79.583
G1 X173.750 Y79.583 E104.740
G1 X170.417 Y86.250 E113.684
G1 X167.083 Y95.833 E125.860
G1 X165.417 Y101.250 E132.661
G1 X166.667 Y97.917 E136.933
G1 X167.917 Y94.583 E141.205
G1 X168.750 Y91.667 E144.845
G1 X170.000 Y87.917 E149.588
G1 X171.667 Y84.583 E154.060
G1 X172.917 Y80.833 E158.804
G1 X174.583 Y77.500 E163.276
G1 X175.833 Y74.167 E167.548


G0 X165.000 Y90.833
G1 X165.000 Y90.833 E167.548
G1 X162.083 Y99.167 E178.143


G0 X150.417 Y105.000
G1 X150.417 Y105.000 E178.143
G1 X149.583 Y108.750 E182.753
G1 X149.167 Y112.083 E186.784
G1 X149.167 Y115.417 E190.784
G1 X148.333 Y119.583 E195.883
G1 X148.333 Y122.917 E199.883
G1 X148.750 Y126.250 E203.914
G1 X149.583 Y129.167 E207.554
G1 X149.583 Y132.500 E211.554
G1 X150.000 Y135.833 E215.585


G0 X144.583 Y135.833
G1 X144.583 Y135.833 E215.585
G1 X145.417 Y139.167 E219.708
G1 X145.833 Y142.500 E223.739
G1 X145.417 Y145.417 E227.275
G1 X145.000 Y148.750 E231.306
G1 X145.000 Y152.500 E235.806


G0 X147.500 Y152.083
G1 X147.500 Y152.083 E235.806
G1 X147.083 Y148.750 E239.837
G1 X145.417 Y147.500 E242.337


G0 X151.667 Y146.667
G1 X151.667 Y146.667 E242.337
G1 X151.667 Y150.000 E246.337
G1 X151.250 Y153.333 E250.368
G1 X150.417 Y156.667 E254.491


G0 X138.333 Y160.833
G1 X138.333 Y160.833 E254.491
G1 X137.917 Y157.500 E258.522
G1 X136.250 Y155.417 E261.724


G0 X123.333 Y148.750
G1 X123.333 Y148.750 E261.724
G1 X127.083 Y142.917 E270.046
G1 X130.000 Y136.250 E278.778
G1 X133.750 Y129.583 E287.956


G0 X126.250 Y132.917
G1 X126.250 Y132.917 E287.956
G1 X124.583 Y136.250 E292.429


G0 X122.917 Y130.417
G1 X122.917 Y130.417 E292.429
G1 X119.167 Y131.250 E297.038
G1 X118.750 Y130.833 E297.746
G1 X119.583 Y132.917 E300.438
G1 X120.833 Y131.667 E302.559
G1 X118.333 Y128.333 E307.559
G1 X115.000 Y128.333 E311.559


G0 X118.333 Y130.833
G1 X118.333 Y130.833 E311.559
G1 X117.500 Y134.167 E315.683
G1 X118.333 Y137.083 E319.323
G1 X120.833 Y137.917 E322.485
G1 X123.750 Y136.250 E326.516


G0 X117.500 Y143.333
G1 X117.500 Y143.333 E326.516
G1 X114.167 Y142.917 E330.547


G0 X114.167 Y142.083
G1 X114.167 Y142.083 E330.547
G1 X117.500 Y141.250 E334.670
G1 X121.250 Y141.250 E339.170


G0 X125.000 Y138.333
G1 X125.000 Y138.333 E339.170
G1 X121.667 Y139.583 E343.442
G1 X118.333 Y140.417 E347.565
G1 X114.583 Y140.833 E352.093
G1 X111.250 Y140.000 E356.216
G1 X108.333 Y140.417 E359.752
G1 X105.000 Y140.000 E363.783


G0 X105.000 Y138.333
G1 X105.000 Y138.333 E363.783
G1 X108.333 Y138.333 E367.783
G1 X111.667 Y138.333 E371.783
G1 X114.583 Y137.917 E375.318
G1 X117.917 Y136.667 E379.590


G0 X114.583 Y140.000
G1 X114.583 Y140.000 E379.590
G1 X115.000 Y143.333 E383.621
G1 X117.083 Y145.417 E387.157
G1 X120.417 Y144.583 E391.280


G0 X116.250 Y153.750
G1 X116.250 Y153.750 E391.280
G1 X119.583 Y154.167 E395.311
G1 X122.500 Y154.167 E398.811
G1 X125.833 Y156.250 E403.528
G1 X129.167 Y157.500 E407.800
G1 X132.500 Y159.583 E412.517
G1 X136.250 Y162.500 E418.218
G1 X139.583 Y166.250 E424.239


G0 X144.583 Y182.917
G1 X144.583 Y182.917 E424.239
G1 X148.333 Y181.250 E429.163
G1 X151.667 Y181.667 E433.194
G1 X155.000 Y182.917 E437.466
G1 X158.750 Y183.333 E441.994
G1 X161.667 Y185.000 E446.025


G0 X162.917 Y185.000
G1 X162.917 Y185.000 E446.025
G1 X166.250 Y186.250 E450.297
G1 X169.583 Y184.583 E454.769
G1 X170.417 Y187.500 E458.409


G0 X172.500 Y182.917
G1 X172.500 Y182.917 E458.409
G1 X170.833 Y188.333 E465.210
G1 X171.667 Y185.417 E468.850
G1 X172.500 Y182.083 E472.973
G1 X170.417 Y178.333 E478.121
G1 X169.167 Y175.000 E482.393
G1 X169.583 Y171.667 E486.424
G1 X171.250 Y168.750 E490.455
G1 X175.417 Y165.417 E496.859
G1 X176.250 Y162.500 E500.499
G1 X177.083 Y159.583 E504.139
G1 X177.083 Y156.250 E508.139
G1 X178.333 Y152.917 E512.411
G1 X178.750 Y149.583 E516.442
G1 X179.167 Y145.833 E520.969
G1 X179.583 Y142.083 E525.497
G1 X180.000 Y138.750 E529.528
G1 X180.000 Y135.000 E534.028
G1 X180.833 Y131.667 E538.151
G1 X180.833 Y128.333 E542.151
G1 X182.083 Y124.583 E546.895
G1 X183.333 Y121.250 E551.167
G1 X185.000 Y117.917 E555.639
G1 X187.500 Y114.583 E560.639
G1 X191.250 Y111.250 E566.660
G1 X196.667 Y107.917 E574.292
G1 X197.500 Y107.917 E585.069
G1 X194.167 Y109.583 E589.541
G1 X190.833 Y111.667 E594.258
G1 X187.500 Y115.000 E599.915
G1 X183.750 Y120.833 E608.236
G1 X180.417 Y127.083 E616.736


G0 X160.417 Y117.083
G1 X160.417 Y117.083 E616.736
G1 X159.167 Y120.417 E621.008
G1 X158.333 Y123.750 E625.131
G1 X157.083 Y127.083 E629.403


G0 X140.417 Y140.417
G1 X140.417 Y140.417 E629.403
G1 X139.583 Y144.167 E634.013
G1 X139.583 Y147.500 E638.013
G1 X139.583 Y150.833 E642.013
G1 X140.000 Y153.750 E645.549
G1 X140.000 Y157.083 E649.549
G1 X139.583 Y160.000 E653.084


G0 X151.250 Y180.000
G1 X151.250 Y180.000 E653.084
G1 X154.583 Y183.750 E659.105


G0 X167.917 Y182.917
G1 X167.917 Y182.917 E659.105
G1 X167.500 Y182.500 E659.812
G1 X165.833 Y186.250 E664.737
G1 X165.833 Y189.583 E668.737
G1 X166.250 Y192.917 E672.768


G0 X172.500 Y179.167
G1 X172.500 Y179.167 E672.768
G1 X169.167 Y177.083 E677.485


G0 X169.583 Y171.250
G1 X169.583 Y171.250 E677.485
G1 X172.917 Y167.500 E683.506


G0 X173.750 Y161.667
G1 X173.750 Y161.667 E683.506
G1 X173.750 Y158.333 E687.506


G0 X180.000 Y174.167
G1 X180.000 Y174.167 E687.506
G1 X183.750 Y168.750 E695.411
G1 X187.083 Y161.667 E704.805
G1 X190.417 Y158.333 E710.462
G1 X193.750 Y155.000 E716.119
G1 X197.500 Y152.917 E721.267


G0 X199.583 Y150.000
G1 X199.583 Y150.000 E725.539
G1 X194.167 Y153.333 E733.171
G1 X190.833 Y157.083 E739.192
G1 X187.500 Y160.833 E745.213
G1 X186.250 Y164.167 E749.485
G1 X185.000 Y167.500 E753.757
G1 X183.333 Y170.833 E758.229
G1 X181.250 Y174.167 E762.946
G1 X180.000 Y177.083 E766.754
G1 X179.167 Y180.833 E771.363
G1 X177.083 Y184.167 E776.080


G0 X180.833 Y181.250
G1 X180.833 Y181.250 E776.080
G1 X177.500 Y183.750 E781.080
G1 X174.167 Y187.917 E787.484
G1 X170.833 Y191.250 E793.140
G1 X167.083 Y192.917 E798.065
G1 X171.667 Y190.000 E804.584
G1 X174.583 Y186.667 E809.899
G1 X177.500 Y183.333 E815.214
G1 X182.083 Y179.583 E822.321


G0 X182.500 Y190.000
G1 X182.500 Y190.000 E822.321
G1 X179.167 Y193.333 E827.977
G1 X179.167 Y192.917 E828.477
G1 X182.500 Y190.000 E833.792


G0 X190.833 Y190.833
G1 X190.833 Y190.833 E833.792
G1 X187.500 Y195.000 E840.196
G1 X185.417 Y199.167 E845.786
G1 X187.500 Y197.083 E852.904
G1 X189.583 Y193.333 E858.051
G1 X192.500 Y190.000 E863.366
G1 X194.167 Y186.667 E867.839


G0 X196.250 Y191.667
G1 X196.250 Y191.667 E867.839
G1 X193.333 Y197.500 E875.665
G1 X194.167 Y197.083 E876.783
G1 X195.833 Y193.750 E881.255
G1 X198.750 Y190.833 E886.205




G0 X192.500 Y158.750
G1 X192.500 Y158.750 E897.926
G1 X189.583 Y162.083 E903.242
G1 X187.500 Y165.000 E907.543
G1 X189.583 Y162.083 E911.844
G1 X192.917 Y157.917 E918.247
G1 X198.750 Y154.583 E926.309


G0 X148.750 Y197.083
G1 X148.333 Y193.750 E935.084
G1 X147.500 Y190.000 E939.694
G1 X146.667 Y186.250 E944.303
G1 X146.250 Y182.917 E948.334
G1 X145.417 Y179.167 E952.944
G1 X144.583 Y175.417 E957.554
G1 X143.750 Y172.083 E961.677
G1 X142.500 Y168.750 E965.949
G1 X141.250 Y165.417 E970.221
G1 X138.750 Y162.083 E975.221
G1 X135.417 Y158.750 E980.878
G1 X130.000 Y155.417 E988.510
G1 X123.333 Y151.250 E997.944
G1 X123.750 Y148.333 E1001.480
G1 X125.417 Y145.000 E1005.952
G1 X127.500 Y141.667 E1010.669
G1 X130.000 Y138.750 E1015.279
G1 X131.667 Y135.000 E1020.203
G1 X132.917 Y132.083 E1024.011
G1 X134.583 Y128.750 E1028.483
G1 X135.417 Y125.417 E1032.606
G1 X136.250 Y122.083 E1036.729
G1 X136.667 Y118.750 E1040.760
G1 X137.083 Y115.833 E1044.296
G1 X137.083 Y112.500 E1048.296
G1 X134.167 Y108.750 E1053.997
G1 X130.417 Y110.417 E1058.921
G1 X129.583 Y111.667 E1060.724


G0 X134.583 Y112.083
G1 X134.583 Y112.083 E1060.724
G1 X134.167 Y109.167 E1064.259
G1 X134.167 Y105.833 E1068.259
G1 X132.083 Y106.667 E1070.952
G1 X129.167 Y108.750 E1075.253
G1 X132.917 Y106.250 E1080.662
G1 X130.833 Y106.667 E1083.211
G1 X127.500 Y106.667 E1087.211


G0 X125.417 Y106.667
G1 X125.417 Y106.667 E1087.211
G1 X129.167 Y103.333 E1093.232
G1 X132.083 Y102.083 E1097.040
G1 X135.000 Y101.667 E1100.575


G0 X135.833 Y100.417
G1 X135.833 Y100.417 E1100.575
G1 X132.500 Y101.667 E1104.847


G0 X128.333 Y101.250
G1 X128.333 Y101.250 E1104.847
G1 X131.667 Y99.583 E1109.319
G1 X135.417 Y98.333 E1114.063


G0 X139.583 Y100.417
G1 X139.583 Y100.417 E1114.063
G1 X138.333 Y96.667 E1118.806
G1 X138.333 Y93.750 E1122.306
G1 X137.083 Y88.333 E1128.977
G1 X136.667 Y85.417 E1132.513
G1 X133.333 Y81.667 E1138.533


G0 X132.500 Y80.417
G1 X132.500 Y80.417 E1138.533
G1 X135.833 Y78.333 E1143.250
G1 X138.750 Y76.250 E1147.552
G1 X142.083 Y74.583 E1152.024
G1 X145.417 Y72.917 E1156.496
G1 X148.750 Y71.250 E1160.968
G1 X152.083 Y69.583 E1165.440
G1 X155.000 Y67.500 E1169.741
G1 X158.333 Y65.833 E1174.213
G1 X158.333 Y64.167 E1176.213
G1 X156.250 Y66.667 E1180.119
G1 X150.417 Y67.917 E1187.277
G1 X153.750 Y62.917 E1194.489


G0 X156.667 Y62.917
G1 X156.667 Y62.917 E1194.489
G1 X153.333 Y67.083 E1200.892
G1 X155.417 Y64.167 E1205.193
G1 X156.667 Y60.833 E1209.465


G0 X157.083 Y61.667
G1 X157.083 Y61.667 E1209.465
G1 X154.167 Y65.000 E1214.780
G1 X151.667 Y68.333 E1219.780
G1 X148.333 Y72.917 E1226.581
G1 X140.833 Y75.833 E1236.237
G1 X135.000 Y79.167 E1244.300
G1 X133.750 Y82.500 E1248.572
G1 X135.000 Y85.833 E1252.844
G1 X135.833 Y89.167 E1256.967
G1 X136.667 Y92.500 E1261.090
G1 X137.083 Y95.833 E1265.121
G1 X135.833 Y99.583 E1269.864
G1 X131.667 Y102.917 E1276.267
G1 X126.250 Y106.250 E1283.900
G1 X125.000 Y109.583 E1288.172
G1 X127.500 Y110.417 E1291.334
G1 X132.083 Y112.500 E1297.375
G1 X133.750 Y112.083 E1299.437


G0 X126.667 Y117.917
G1 X126.667 Y117.917 E1299.437
G1 X126.667 Y121.250 E1303.437
G1 X127.500 Y125.000 E1308.047
G1 X125.833 Y128.333 E1312.519


G0 X125.833 Y126.667
G1 X125.833 Y126.667 E1312.519
G1 X123.333 Y126.667 E1315.519
G1 X123.333 Y123.333 E1319.519
G1 X122.500 Y120.000 E1323.642
G1 X122.083 Y117.083 E1327.177
G1 X121.667 Y113.750 E1331.209
G1 X120.000 Y110.417 E1335.681


G0 X123.750 Y110.417
G1 X123.750 Y110.417 E1335.681
G1 X126.250 Y113.333 E1340.291


G0 X114.583 Y107.500
G1 X114.583 Y107.500 E1340.291
G1 X112.500 Y108.333 E1342.983
G1 X111.250 Y106.667 E1345.483
G1 X109.167 Y103.333 E1350.200
G1 X104.167 Y104.167 E1356.283


G0 X100.417 Y102.500
G1 X100.417 Y102.500 E1356.283
G1 X103.333 Y101.250 E1360.091
G1 X107.083 Y100.417 E1364.701
G1 X109.583 Y101.250 E1367.863
G1 X111.667 Y102.917 E1371.064
G1 X112.917 Y106.250 E1375.336
G1 X115.000 Y106.667 E1377.886
G1 X115.417 Y108.750 E1380.435
G1 X113.750 Y113.333 E1386.288


G0 X110.833 Y105.833
G1 X110.833 Y105.833 E1386.288
G1 X107.500 Y104.167 E1390.760
G1 X105.000 Y108.333 E1396.591
G1 X101.667 Y105.417 E1401.906
G1 X102.917 Y109.167 E1406.649
G1 X99.167 Y107.917 E1411.393
G1 X98.333 Y107.083 E1412.807
G1 X95.000 Y107.917 E1416.930


G0 X90.000 Y107.083
G1 X90.000 Y107.083 E1416.930
G1 X87.917 Y110.833 E1422.078
G1 X85.833 Y113.333 E1425.983
G1 X89.167 Y108.333 E1433.194


G0 X88.750 Y112.500
G1 X88.750 Y112.500 E1433.194
G1 X92.083 Y109.583 E1438.509
G1 X91.667 Y110.417 E1439.627
G1 X88.333 Y114.167 E1445.648
G1 X87.083 Y117.917 E1450.391
G1 X86.250 Y121.250 E1454.514
G1 X84.167 Y123.750 E1458.420
G1 X84.583 Y127.500 E1462.947
G1 X84.583 Y130.833 E1466.947
G1 X84.583 Y133.750 E1470.447
G1 X85.000 Y137.083 E1474.478
G1 X85.000 Y140.417 E1478.478
G1 X85.833 Y143.750 E1482.602


G0 X90.417 Y145.417
G1 X90.417 Y145.417 E1482.602
G1 X91.250 Y148.750 E1486.725
G1 X92.083 Y151.667 E1490.365
G1 X92.917 Y154.583 E1494.005
G1 X94.167 Y158.333 E1498.748
G1 X94.583 Y161.667 E1502.779
G1 X95.417 Y165.000 E1506.902
G1 X96.250 Y168.333 E1511.026
G1 X95.417 Y171.667 E1515.149
G1 X95.417 Y175.000 E1519.149
G1 X94.583 Y178.333 E1523.272
G1 X93.750 Y181.667 E1527.395
G1 X92.917 Y185.417 E1532.005
G1 X90.417 Y188.750 E1537.005
G1 X86.250 Y192.083 E1543.408
G1 X76.250 Y196.667 E1556.608
G1 X72.083 Y200.000 E1563.011


G0 X76.667 Y192.083
G1 X76.667 Y192.083 E1563.011
G1 X80.000 Y191.667 E1567.042
G1 X83.333 Y190.417 E1571.314
G1 X86.250 Y187.083 E1576.629
G1 X89.167 Y182.917 E1582.733


G0 X83.750 Y180.417
G1 X83.750 Y180.417 E1582.733
G1 X81.250 Y185.417 E1589.441
G1 X83.333 Y182.083 E1594.158
G1 X85.417 Y179.167 E1598.459
G1 X85.833 Y175.833 E1602.490
G1 X87.500 Y172.917 E1606.521
G1 X88.333 Y170.417 E1609.684
G1 X89.583 Y167.500 E1613.491
G1 X90.833 Y164.167 E1617.763
G1 X90.833 Y160.833 E1621.763
G1 X90.833 Y160.833 E1621.763


G0 X90.417 Y159.167
G1 X90.417 Y159.167 E1621.763
G1 X92.083 Y164.167 E1628.088
G1 X92.500 Y167.500 E1632.119
G1 X90.833 Y170.417 E1636.150
G1 X92.917 Y172.500 E1639.686
G1 X92.083 Y175.417 E1643.326
G1 X91.667 Y178.750 E1647.357
G1 X90.417 Y182.083 E1651.629
G1 X88.750 Y185.000 E1655.660
G1 X85.417 Y187.917 E1660.975
G1 X80.417 Y191.250 E1668.186


G0 X79.167 Y186.667
G1 X79.167 Y186.667 E1668.186
G1 X76.250 Y192.083 E1675.569
G1 X77.917 Y188.750 E1680.041
G1 X80.000 Y185.000 E1685.189
G1 X80.833 Y181.667 E1689.312


G0 X77.500 Y177.500
G1 X77.500 Y177.500 E1689.312
G1 X77.917 Y174.167 E1693.343


G0 X87.917 Y171.667
G1 X87.917 Y171.667 E1693.343
G1 X91.250 Y169.167 E1698.343


G0 X95.417 Y171.250
G1 X95.417 Y171.250 E1698.343
G1 X95.000 Y174.583 E1702.374
G1 X94.583 Y177.500 E1705.910
G1 X92.917 Y180.833 E1710.382


G0 X99.583 Y164.167
G1 X99.583 Y164.167 E1710.382
G1 X103.333 Y160.833 E1716.403


G0 X105.417 Y152.917
G1 X105.417 Y152.917 E1716.403
G1 X102.500 Y153.333 E1719.938
G1 X99.167 Y153.333 E1723.938
G1 X95.833 Y153.750 E1727.969
G1 X92.917 Y147.917 E1735.795


G0 X94.167 Y147.083
G1 X94.167 Y147.083 E1735.795
G1 X99.583 Y150.417 E1743.428
G1 X103.333 Y150.833 E1747.955


G0 X98.333 Y151.250
G1 X98.333 Y151.250 E1747.955
G1 X95.000 Y149.583 E1752.427
G1 X91.250 Y146.667 E1758.128


G0 X92.083 Y146.250
G1 X92.083 Y146.250 E1758.128
G1 X92.917 Y149.583 E1762.251
G1 X94.583 Y152.917 E1766.724
G1 X95.833 Y156.250 E1770.996
G1 X95.833 Y162.083 E1777.996
G1 X96.250 Y165.417 E1782.027
G1 X99.583 Y165.000 E1786.058
G1 X102.917 Y162.500 E1791.058


G0 X78.333 Y170.417
G1 X78.333 Y170.417 E1791.058
G1 X77.500 Y169.167 E1792.861
G1 X75.833 Y164.583 E1798.713
G1 X75.833 Y161.250 E1802.713
G1 X75.833 Y157.917 E1806.713
G1 X75.833 Y154.167 E1811.213


G0 X77.083 Y151.667
G1 X77.083 Y151.667 E1811.213
G1 X75.833 Y155.000 E1815.485
G1 X75.833 Y158.333 E1819.485
G1 X75.833 Y161.667 E1823.485
G1 X75.833 Y165.417 E1827.985
G1 X76.250 Y169.167 E1832.513
G1 X75.417 Y172.500 E1836.636
G1 X76.667 Y177.083 E1842.337
G1 X80.000 Y178.333 E1846.609


G0 X70.000 Y179.167
G1 X70.000 Y179.167 E1846.609
G1 X66.250 Y174.583 E1853.715


G0 X68.333 Y169.583
G1 X68.333 Y169.583 E1853.715
G1 X67.917 Y162.500 E1862.230
G1 X64.583 Y157.917 E1869.030


G0 X66.250 Y157.917
G1 X66.250 Y157.917 E1869.030
G1 X69.583 Y162.917 E1876.241


G0 X70.417 Y162.083
G1 X70.417 Y162.083 E1876.241
G1 X67.083 Y156.667 E1883.874
