;FLAVOR:RepRap
;TIME:37
G21 ;metric values
G90 ;absolute positioning
M302 ;run nozzle cold
M82 ;set extruder to absolute mode
M107 ;start with the fan off
G28 X0 Y0 ;move X/Y to min endstops
G28 Z0 ;move Z to min endstops
G1 Z15.0 F9000 ;move the platform down 15mm
G92 E0 ;zero the extruded length
G1 F200 E6 ;extrude 6 mm of feed stock
G92 E0 ;zero the extruded length again
G1 F9000
;Put printing message on LCD screen
M117 Printing...
;Generated with Cura_SteamEngine 2.1.2
;LAYER_COUNT:1
;LAYER:0
M107
G1 F1500.00 E-6.50000
G1 F7200.0

G0 X9.762 Y15.238
G1 X9.762 Y15.238 E0.000
G1 X7.381 Y17.143 E3.049
G1 X6.667 Y17.381 E3.802
G1 X3.333 Y20.238 E8.192
G1 X1.667 Y22.143 E10.723
G1 X0.952 Y22.619 E11.582
G1 X2.619 Y20.714 E14.113
G1 X4.524 Y18.571 E16.980
G1 X6.429 Y17.381 E19.226
G1 X8.333 Y15.476 E21.920
G1 X10.238 Y14.762 E23.954
G1 X12.143 Y14.286 E25.917
G1 X13.810 Y13.810 E27.651
G1 X15.714 Y13.095 E29.685
G1 X17.619 Y12.619 E31.648
G1 X19.524 Y12.143 E33.612
G1 X21.429 Y11.667 E35.575
G1 X23.571 Y10.952 E37.834
G1 X25.476 Y10.476 E39.797
G1 X27.381 Y9.762 E41.832
G1 X29.524 Y8.810 E44.177
G1 X31.429 Y8.571 E46.096
G1 X33.333 Y7.857 E48.130
G1 X35.476 Y7.143 E50.389
G1 X37.381 Y6.667 E52.353
G1 X39.286 Y5.952 E54.387
G1 X41.190 Y5.238 E56.421
G1 X43.095 Y4.286 E58.551
G1 X45.000 Y3.571 E60.585
G1 X46.905 Y3.095 E62.548
G1 X48.810 Y2.619 E64.512
G1 X50.714 Y1.905 E66.546
G1 X52.857 Y1.667 E68.702
G1 X54.762 Y1.429 E70.622
G1 X56.667 Y0.714 E72.656


G0 X41.905 Y17.857
G1 X41.905 Y17.857 E72.656
G1 X38.333 Y19.762 E76.704


G0 X35.000 Y32.857
G1 X35.000 Y32.857 E76.704
G1 X33.571 Y31.429 E78.724
G1 X31.429 Y31.905 E80.919
G1 X29.286 Y31.667 E83.075
G1 X27.381 Y31.429 E84.995
G1 X25.476 Y31.190 E86.914


G0 X32.143 Y41.429
G1 X32.143 Y41.429 E86.914
G1 X30.238 Y40.952 E88.878
G1 X28.333 Y40.238 E90.912
G1 X26.667 Y40.000 E92.596
G1 X25.000 Y39.762 E94.279
G1 X23.333 Y39.286 E96.012
G1 X21.429 Y39.286 E97.917
G1 X19.524 Y39.048 E99.837
G1 X17.619 Y38.810 E101.756
G1 X15.714 Y38.333 E103.720
G1 X13.810 Y38.333 E105.625


G0 X13.333 Y39.762
G1 X13.333 Y39.762 E105.625
G1 X15.238 Y40.476 E107.659
G1 X17.143 Y41.190 E109.693
G1 X18.810 Y41.667 E111.427


G0 X34.286 Y48.095
G1 X34.286 Y48.095 E111.427
G1 X36.190 Y49.048 E113.556
G1 X38.333 Y49.762 E115.815
G1 X40.476 Y50.476 E118.074
G1 X42.619 Y48.571 E120.941
G1 X44.762 Y47.143 E123.516
G1 X46.667 Y45.952 E125.762
G1 X48.810 Y45.000 E128.107
G1 X50.714 Y44.286 E130.142


G0 X47.143 Y44.762
G1 X47.143 Y44.762 E130.142
G1 X44.286 Y46.667 E133.575
G1 X41.905 Y48.333 E136.482


G0 X39.048 Y52.381
G1 X39.048 Y52.381 E136.482
G1 X40.000 Y50.714 E138.401
G1 X36.667 Y49.048 E142.128


G0 X40.000 Y59.524
G1 X40.000 Y59.524 E142.128
G1 X38.095 Y60.238 E144.162


G0 X38.333 Y60.476
G1 X38.333 Y60.476 E144.162
G1 X40.476 Y61.190 E146.421


G0 X41.190 Y61.429
G1 X41.190 Y61.429 E146.421
G1 X39.286 Y61.190 E148.341


G0 X55.952 Y35.476
G1 X55.952 Y35.476 E148.341
G1 X57.857 Y36.190 E150.375
G1 X59.762 Y36.429 E152.295
G1 X61.667 Y36.429 E154.199
G1 X63.333 Y37.143 E156.013
G1 X65.000 Y37.381 E157.696
G1 X66.905 Y37.619 E159.616
G1 X69.048 Y37.857 E161.772
G1 X70.952 Y38.333 E163.735
G1 X72.857 Y38.333 E165.640
G1 X74.524 Y38.571 E167.324
G1 X76.667 Y38.810 E169.480
G1 X78.810 Y39.286 E171.675
G1 X80.952 Y39.762 E173.870
G1 X83.095 Y40.238 E176.065
G1 X85.000 Y40.714 E178.028
G1 X87.143 Y40.952 E180.184


G0 X105.714 Y38.571
G1 X105.714 Y38.571 E180.184
G1 X107.857 Y38.333 E182.340
G1 X109.762 Y38.333 E184.245
G1 X111.667 Y37.857 E186.209
G1 X113.810 Y37.381 E188.404
G1 X115.714 Y37.381 E190.309
G1 X117.857 Y37.143 E192.465
G1 X120.000 Y36.667 E194.660
G1 X122.143 Y36.429 E196.816
G1 X124.286 Y36.429 E198.959
G1 X125.952 Y36.429 E200.625
G1 X127.857 Y35.952 E202.589
G1 X129.762 Y35.476 E204.552
G1 X131.429 Y35.000 E206.285
G1 X133.095 Y35.000 E207.952
G1 X135.238 Y34.286 E210.211
G1 X136.905 Y34.286 E211.877
G1 X138.571 Y34.048 E213.561
G1 X140.476 Y34.048 E215.466
G1 X143.571 Y33.571 E218.597
G1 X145.476 Y33.095 E220.561
G1 X147.381 Y33.333 E222.480
G1 X149.286 Y33.095 E224.400
G1 X151.429 Y32.619 E226.595
G1 X153.095 Y32.143 E228.329
G1 X155.000 Y31.905 E230.248
G1 X156.905 Y31.667 E232.168
G1 X158.810 Y31.429 E234.087
G1 X160.714 Y31.190 E236.007
G1 X162.619 Y30.952 E237.926
G1 X164.286 Y30.714 E239.610
G1 X166.429 Y30.238 E241.805
G1 X168.333 Y30.476 E243.725
G1 X170.476 Y30.238 E245.881
G1 X172.143 Y30.238 E247.547
G1 X174.286 Y29.762 E249.743
G1 X176.190 Y29.524 E251.662
G1 X178.095 Y29.524 E253.567
G1 X180.000 Y29.048 E255.530
G1 X181.190 Y29.048 E256.721
G1 X183.333 Y28.810 E258.877
G1 X185.238 Y28.333 E260.840
G1 X187.143 Y28.095 E262.760
G1 X188.810 Y27.857 E264.443
G1 X190.714 Y27.619 E266.363
G1 X192.381 Y27.857 E268.047
G1 X194.048 Y27.619 E269.730
G1 X195.952 Y27.619 E271.635
G1 X197.619 Y27.381 E273.319
G1 X199.286 Y27.381 E274.985


G0 X172.619 Y39.762
G1 X172.619 Y39.762 E274.985
G1 X170.714 Y37.619 E277.852
G1 X168.810 Y37.381 E279.772
G1 X167.143 Y37.381 E281.438
G1 X165.238 Y36.905 E283.402
G1 X163.571 Y37.143 E285.085
G1 X161.667 Y36.905 E287.005
G1 X159.762 Y36.905 E288.910
G1 X157.857 Y37.143 E290.829
G1 X155.714 Y36.905 E292.985
G1 X153.810 Y38.095 E295.232


G0 X155.476 Y36.667
G1 X155.476 Y36.667 E295.232
G1 X153.571 Y38.810 E298.099
G1 X153.095 Y40.952 E300.294
G1 X153.095 Y42.857 E302.199
G1 X153.333 Y45.476 E304.828
G1 X155.238 Y45.476 E306.733
G1 X154.286 Y46.667 E308.258


G0 X155.000 Y45.714
G1 X155.000 Y45.714 E308.258
G1 X155.714 Y43.810 E310.292
G1 X155.714 Y41.905 E312.197
G1 X156.429 Y39.762 E314.456
G1 X157.381 Y39.048 E315.646
G1 X155.476 Y41.190 E318.513


G0 X170.476 Y36.905
G1 X170.476 Y36.905 E318.513
G1 X172.619 Y38.810 E321.380


G0 X195.952 Y81.190
G1 X195.952 Y81.190 E321.380
G1 X197.857 Y80.714 E323.343
G1 X199.762 Y81.429 E325.378


G0 X159.286 Y88.571
G1 X159.286 Y88.571 E325.378
G1 X159.048 Y90.238 E327.061
G1 X159.286 Y92.143 E328.981
G1 X159.048 Y94.048 E330.901
G1 X159.286 Y95.952 E332.820
G1 X159.286 Y97.857 E334.725
G1 X159.286 Y99.762 E336.630
G1 X159.048 Y101.429 E338.313
G1 X158.571 Y103.095 E340.047


G0 X155.238 Y105.952
G1 X155.238 Y105.952 E340.047
G1 X155.714 Y108.571 E342.709


G0 X155.714 Y111.905
G1 X155.714 Y111.905 E342.709
G1 X155.714 Y110.000 E344.613
G1 X154.762 Y107.857 E346.958
G1 X154.286 Y105.952 E348.922
G1 X153.095 Y104.048 E351.168


G0 X157.857 Y102.857
G1 X157.857 Y102.857 E351.168
G1 X157.857 Y100.952 E353.073
G1 X157.857 Y98.810 E355.215
G1 X157.619 Y96.905 E357.135
G1 X157.381 Y94.762 E359.291
G1 X157.381 Y92.619 E361.434
G1 X157.619 Y90.714 E363.354
G1 X157.143 Y89.048 E365.087
G1 X156.190 Y88.333 E366.277
G1 X154.048 Y89.286 E368.622


G0 X139.286 Y97.619
G1 X139.286 Y97.619 E368.622
G1 X139.048 Y99.524 E370.542
G1 X138.571 Y101.429 E372.505
G1 X138.095 Y103.333 E374.469
G1 X138.571 Y105.238 E376.432
G1 X139.286 Y106.905 E378.245
G1 X140.476 Y108.810 E380.492
G1 X142.857 Y110.000 E383.154
G1 X144.524 Y111.905 E385.685
G1 X145.952 Y114.048 E388.260
G1 X147.619 Y115.952 E390.791
G1 X148.810 Y117.857 E393.037
G1 X149.762 Y119.762 E395.167


G0 X148.810 Y116.429
G1 X148.810 Y116.429 E395.167
G1 X146.905 Y113.810 E398.405
G1 X145.000 Y111.429 E401.454
G1 X143.095 Y109.286 E404.321
G1 X141.190 Y108.571 E406.356
G1 X139.286 Y105.714 E409.789


G0 X159.286 Y111.190
G1 X159.286 Y111.190 E409.789
G1 X158.810 Y113.095 E411.753
G1 X159.048 Y115.000 E413.672
G1 X158.810 Y116.905 E415.592
G1 X159.048 Y118.810 E417.512
G1 X159.286 Y120.476 E419.195
G1 X159.048 Y122.143 E420.879
G1 X159.286 Y124.048 E422.798
G1 X159.286 Y125.714 E424.465
G1 X159.286 Y127.619 E426.370
G1 X159.286 Y129.524 E428.275
G1 X159.286 Y131.429 E430.179
G1 X159.286 Y133.333 E432.084
G1 X159.524 Y135.238 E434.004
G1 X159.286 Y137.381 E436.160
G1 X159.286 Y139.524 E438.303
G1 X159.524 Y141.667 E440.459
G1 X159.762 Y143.571 E442.378
G1 X160.000 Y145.476 E444.298
G1 X160.238 Y147.381 E446.217
G1 X160.238 Y149.286 E448.122
G1 X160.476 Y151.429 E450.278
G1 X160.238 Y153.095 E451.962
G1 X160.238 Y155.000 E453.866
G1 X160.238 Y156.905 E455.771
G1 X160.714 Y158.571 E457.505
G1 X160.714 Y160.714 E459.647
G1 X161.190 Y162.619 E461.611
G1 X161.190 Y164.524 E463.516
G1 X161.429 Y166.190 E465.199
G1 X161.190 Y168.095 E467.119
G1 X161.429 Y170.000 E469.038
G1 X161.429 Y171.905 E470.943
G1 X161.429 Y174.048 E473.086
G1 X161.429 Y175.952 E474.991
G1 X161.190 Y177.857 E476.910
G1 X161.429 Y179.762 E478.830
G1 X161.667 Y181.667 E480.749
G1 X161.429 Y183.571 E482.669
G1 X161.429 Y185.476 E484.574
G1 X161.667 Y187.381 E486.493
G1 X161.429 Y189.286 E488.413
G1 X161.429 Y191.190 E490.318
G1 X161.429 Y193.095 E492.223
G1 X161.429 Y195.000 E494.127
G1 X161.429 Y196.667 E495.794
G1 X161.667 Y198.571 E497.714


G0 X160.000 Y198.333
G1 X159.524 Y196.429 E503.840
G1 X158.810 Y194.524 E505.875
G1 X158.333 Y192.857 E507.608
G1 X157.857 Y190.952 E509.571
G1 X156.905 Y188.810 E511.916
G1 X156.429 Y186.667 E514.112
G1 X156.905 Y184.762 E516.075
G1 X156.667 Y183.095 E517.759
G1 X156.667 Y180.952 E519.901
G1 X156.429 Y179.048 E521.821
G1 X156.667 Y177.143 E523.741
G1 X156.429 Y175.238 E525.660
G1 X156.429 Y173.571 E527.327
G1 X156.429 Y171.905 E528.994
G1 X156.429 Y170.000 E530.898
G1 X156.429 Y168.095 E532.803
G1 X156.190 Y166.190 E534.723
G1 X156.429 Y164.286 E536.642
G1 X156.667 Y162.143 E538.798
G1 X155.238 Y161.429 E540.395
G1 X153.333 Y161.667 E542.315
G1 X151.429 Y161.905 E544.235
G1 X149.524 Y162.143 E546.154
G1 X147.381 Y162.143 E548.297
G1 X145.476 Y162.381 E550.217
G1 X143.810 Y162.619 E551.900
G1 X141.905 Y163.095 E553.864
G1 X139.762 Y163.333 E556.020
G1 X137.857 Y162.857 E557.983
G1 X136.190 Y162.857 E559.650
G1 X134.286 Y162.619 E561.569
G1 X132.619 Y162.857 E563.253
G1 X130.714 Y163.095 E565.172
G1 X129.048 Y163.095 E566.839
G1 X127.143 Y163.333 E568.759
G1 X125.238 Y163.571 E570.678
G1 X123.333 Y163.095 E572.642
G1 X121.429 Y162.381 E574.676
G1 X119.524 Y161.429 E576.806
G1 X117.619 Y158.571 E580.239
G1 X115.714 Y155.476 E583.874
G1 X113.571 Y152.143 E587.836
G1 X111.429 Y149.048 E591.601
G1 X109.524 Y145.476 E595.649
G1 X107.619 Y141.667 E599.908
G1 X105.714 Y137.381 E604.598


G0 X127.619 Y133.333
G1 X127.619 Y133.333 E604.598
G1 X129.524 Y137.381 E609.071
G1 X131.429 Y140.952 E613.119
G1 X133.333 Y143.571 E616.357
G1 X135.238 Y144.286 E618.392
G1 X137.143 Y145.000 E620.426


G0 X133.571 Y148.095
G1 X133.571 Y148.095 E620.426
G1 X135.476 Y151.905 E624.685


G0 X135.238 Y153.571
G1 X135.238 Y153.571 E624.685
G1 X133.333 Y155.000 E627.066
G1 X131.667 Y157.381 E629.972


G0 X130.952 Y157.381
G1 X130.952 Y157.381 E629.972
G1 X132.619 Y160.714 E633.699


G0 X139.048 Y159.524
G1 X139.048 Y159.524 E633.699
G1 X137.143 Y160.000 E635.662
G1 X135.238 Y160.952 E637.792
G1 X133.333 Y161.905 E639.922
G1 X131.905 Y160.238 E642.117
G1 X130.952 Y158.571 E644.036
G1 X131.667 Y156.667 E646.071
G1 X134.048 Y154.762 E649.120
G1 X135.238 Y152.857 E651.366
G1 X134.286 Y150.952 E653.496
G1 X133.095 Y148.810 E655.947


G0 X144.762 Y158.095
G1 X144.762 Y158.095 E655.947
G1 X146.667 Y158.095 E657.852
G1 X148.810 Y158.333 E660.008
G1 X150.714 Y158.571 E661.927
G1 X152.619 Y158.571 E663.832
G1 X154.524 Y158.333 E665.752


G0 X154.762 Y156.905
G1 X154.762 Y156.905 E665.752
G1 X152.857 Y156.667 E667.671
G1 X150.952 Y155.476 E669.917
G1 X149.048 Y154.524 E672.047


G0 X151.667 Y151.190
G1 X151.667 Y151.190 E672.047
G1 X149.762 Y148.571 E675.285
G1 X147.857 Y145.000 E679.333


G0 X148.571 Y145.714
G1 X148.571 Y145.714 E679.333
G1 X149.524 Y147.619 E681.463
G1 X150.476 Y149.524 E683.592
G1 X152.143 Y151.190 E685.949
G1 X152.143 Y152.857 E687.616
G1 X150.952 Y154.524 E689.664
G1 X152.381 Y156.667 E692.239
G1 X155.476 Y157.619 E695.478


G0 X163.095 Y163.333
G1 X163.095 Y163.333 E695.478
G1 X163.333 Y165.238 E697.398
G1 X163.333 Y166.905 E699.064
G1 X163.571 Y168.810 E700.984
G1 X163.571 Y170.476 E702.650
G1 X163.333 Y172.381 E704.570
G1 X163.571 Y174.286 E706.490
G1 X163.571 Y176.429 E708.632
G1 X163.571 Y178.333 E710.537
G1 X163.810 Y180.238 E712.457
G1 X164.048 Y182.381 E714.613
G1 X163.810 Y184.286 E716.532
G1 X163.810 Y186.190 E718.437
G1 X163.810 Y187.857 E720.104
G1 X163.810 Y189.762 E722.009
G1 X163.571 Y191.429 E723.692
G1 X164.048 Y193.333 E725.656
G1 X164.048 Y195.476 E727.798
G1 X164.048 Y197.619 E729.941
G1 X164.048 Y199.524 E731.846


G0 X158.095 Y188.571
G1 X158.095 Y188.571 E731.846
G1 X157.143 Y186.905 E733.766




G0 X137.143 Y145.000
G1 X137.143 Y145.000 E739.274
G1 X133.333 Y143.095 E743.533
G1 X132.143 Y141.190 E745.779
G1 X131.190 Y139.524 E747.699
G1 X130.476 Y137.857 E749.512
G1 X129.524 Y135.952 E751.641
G1 X128.571 Y134.286 E753.561
G1 X127.619 Y132.619 E755.481
G1 X127.143 Y130.714 E757.444


G0 X119.048 Y100.714
G1 X119.048 Y100.714 E757.444
G1 X123.095 Y99.286 E761.736
G1 X124.524 Y98.571 E763.333
G1 X122.619 Y99.524 E765.463
G1 X120.714 Y100.000 E767.426
G1 X118.810 Y100.476 E769.390
G1 X117.143 Y100.952 E771.123
G1 X115.238 Y101.190 E773.043


G0 X113.810 Y101.429
G1 X113.810 Y101.429 E773.043
G1 X111.905 Y102.381 E775.172
G1 X109.762 Y102.143 E777.328
G1 X107.857 Y101.667 E779.292
G1 X106.190 Y101.905 E780.975


G0 X98.571 Y112.143
G1 X98.571 Y112.143 E780.975
G1 X100.000 Y114.048 E783.356
G1 X100.714 Y115.714 E785.170
G1 X101.905 Y117.381 E787.218
G1 X102.857 Y119.048 E789.137
G1 X103.095 Y120.714 E790.821
G1 X103.333 Y122.619 E792.741
G1 X103.571 Y124.286 E794.424
G1 X103.810 Y126.190 E796.344
G1 X103.571 Y128.095 E798.263
G1 X103.333 Y129.762 E799.947
G1 X103.810 Y131.905 E802.142
G1 X104.524 Y133.810 E804.176
G1 X105.000 Y135.952 E806.371
G1 X105.476 Y137.857 E808.335
G1 X106.190 Y139.762 E810.369
G1 X107.143 Y141.905 E812.714
G1 X108.095 Y144.048 E815.059
G1 X109.286 Y145.952 E817.305
G1 X110.476 Y147.857 E819.551
G1 X111.429 Y150.000 E821.896
G1 X112.619 Y151.905 E824.143
G1 X114.048 Y153.810 E826.524
G1 X115.238 Y155.714 E828.770
G1 X116.190 Y157.857 E831.115
G1 X117.619 Y159.762 E833.496
G1 X118.810 Y161.429 E835.544
G1 X121.905 Y163.333 E839.178


G0 X101.905 Y116.667
G1 X101.905 Y116.667 E839.178
G1 X100.000 Y112.857 E843.437
G1 X98.095 Y111.190 E845.968
G1 X96.190 Y110.000 E848.214
G1 X94.048 Y109.762 E850.371
G1 X92.143 Y110.000 E852.290
G1 X90.000 Y110.000 E854.433
G1 X87.857 Y110.476 E856.628
G1 X85.952 Y110.476 E858.533
G1 X84.048 Y110.714 E860.452
G1 X82.143 Y110.952 E862.372
G1 X80.238 Y110.952 E864.277
G1 X78.571 Y111.190 E865.960
G1 X76.667 Y110.952 E867.880
G1 X74.762 Y111.190 E869.800
G1 X72.857 Y111.190 E871.704
G1 X70.952 Y111.190 E873.609
G1 X69.048 Y111.667 E875.572
G1 X67.381 Y111.905 E877.256
G1 X65.714 Y111.905 E878.923
G1 X63.810 Y112.143 E880.842
G1 X62.143 Y112.619 E882.576
G1 X60.238 Y113.095 E884.539
G1 X58.571 Y113.095 E886.206
G1 X56.667 Y113.333 E888.125
G1 X54.762 Y113.333 E890.030
G1 X52.857 Y113.571 E891.950
G1 X51.190 Y113.571 E893.616
G1 X49.048 Y113.810 E895.772
G1 X46.905 Y113.571 E897.928
G1 X45.000 Y113.810 E899.848
G1 X43.095 Y113.571 E901.768
G1 X40.952 Y113.810 E903.924
G1 X39.048 Y113.571 E905.843
G1 X36.905 Y113.810 E907.999
G1 X35.000 Y114.048 E909.919
G1 X33.095 Y114.286 E911.838
G1 X31.429 Y114.524 E913.522


G0 X41.190 Y111.429
G1 X41.190 Y111.429 E913.522
G1 X43.095 Y111.429 E915.427
G1 X45.000 Y111.190 E917.346
G1 X47.143 Y110.952 E919.502
G1 X48.810 Y110.952 E921.169
G1 X50.714 Y110.952 E923.074
G1 X52.619 Y110.952 E924.979
G1 X54.524 Y110.714 E926.898
G1 X56.429 Y110.714 E928.803
G1 X58.095 Y110.952 E930.487
G1 X59.762 Y110.714 E932.170
G1 X61.905 Y110.476 E934.326
G1 X63.810 Y110.476 E936.231
G1 X65.952 Y110.238 E938.387
G1 X68.095 Y110.238 E940.530
G1 X70.000 Y110.000 E942.449
G1 X71.905 Y110.238 E944.369
G1 X73.810 Y109.762 E946.332
G1 X75.714 Y109.762 E948.237
G1 X77.619 Y109.524 E950.157
G1 X79.524 Y109.286 E952.076


G0 X87.381 Y105.000
G1 X87.381 Y105.000 E952.076
G1 X85.476 Y105.476 E954.040
G1 X83.333 Y105.714 E956.196
G1 X81.667 Y105.476 E957.879
G1 X79.762 Y105.952 E959.843
G1 X77.857 Y105.952 E961.747
G1 X75.952 Y106.429 E963.711
G1 X74.048 Y106.667 E965.630
