;FLAVOR:RepRap
;TIME:37
G21 ;metric values
G90 ;absolute positioning
M302 ;run nozzle cold
M82 ;set extruder to absolute mode
M107 ;start with the fan off
G28 X0 Y0 ;move X/Y to min endstops
G28 Z0 ;move Z to min endstops
G1 Z15.0 F9000 ;move the platform down 15mm
G92 E0 ;zero the extruded length
G1 F200 E6 ;extrude 6 mm of feed stock
G92 E0 ;zero the extruded length again
G1 F9000
;Put printing message on LCD screen
M117 Printing...
;Generated with Cura_SteamEngine 2.1.2
;LAYER_COUNT:1
;LAYER:0
M107
G1 F1500.00 E-6.50000
G1 F7200.0

G0 X28.571 Y9.524
G1 X28.571 Y9.524 E0.000
G1 X27.143 Y10.238 E1.597
G1 X29.048 Y9.524 E3.631
G1 X30.952 Y8.571 E5.761
G1 X32.857 Y8.095 E7.724
G1 X34.762 Y7.381 E9.759
G1 X36.667 Y6.905 E11.722
G1 X38.810 Y6.190 E13.981
G1 X40.714 Y5.238 E16.110
G1 X42.857 Y4.524 E18.369
G1 X44.762 Y4.286 E20.289
G1 X46.905 Y3.333 E22.634
G1 X48.571 Y3.095 E24.317
G1 X50.476 Y2.381 E26.352
G1 X52.381 Y2.143 E28.271
G1 X54.286 Y1.429 E30.306
G1 X55.952 Y1.190 E31.989


G0 X35.476 Y32.619
G1 X35.476 Y32.619 E31.989
G1 X37.381 Y32.381 E33.909
G1 X39.286 Y32.381 E35.813
G1 X41.429 Y33.095 E38.072
G1 X43.333 Y33.333 E39.992
G1 X45.476 Y33.333 E42.135
G1 X47.381 Y33.333 E44.039
G1 X49.286 Y33.810 E46.003
G1 X51.190 Y34.524 E48.037
G1 X52.857 Y34.762 E49.721
G1 X54.524 Y35.000 E51.404
G1 X56.429 Y35.000 E53.309
G1 X58.571 Y35.952 E55.654
G1 X60.476 Y35.952 E57.559
G1 X63.333 Y36.429 E60.455
G1 X65.238 Y36.667 E62.375
G1 X67.143 Y37.143 E64.338
G1 X69.048 Y37.619 E66.302
G1 X71.190 Y38.095 E68.497
G1 X73.095 Y38.333 E70.416
G1 X75.000 Y38.810 E72.380
G1 X77.381 Y39.048 E74.773
G1 X79.286 Y39.524 E76.736
G1 X80.952 Y40.000 E78.469


G0 X85.238 Y40.238
G1 X85.238 Y40.238 E78.469
G1 X87.143 Y40.952 E80.504


G0 X97.381 Y41.190
G1 X97.381 Y41.190 E80.504
G1 X99.286 Y40.238 E82.633
G1 X101.190 Y40.000 E84.553
G1 X103.095 Y39.762 E86.472
G1 X105.238 Y39.524 E88.628
G1 X107.381 Y39.286 E90.784
G1 X109.524 Y38.571 E93.043
G1 X111.429 Y38.333 E94.963
G1 X113.571 Y38.333 E97.106
G1 X115.714 Y38.095 E99.262
G1 X117.619 Y37.143 E101.391
G1 X119.524 Y36.905 E103.311
G1 X121.429 Y36.667 E105.231
G1 X123.333 Y36.667 E107.135
G1 X125.000 Y36.429 E108.819
G1 X126.905 Y36.429 E110.724
G1 X128.571 Y35.952 E112.457
G1 X130.238 Y35.476 E114.190
G1 X132.143 Y35.238 E116.110
G1 X133.810 Y35.000 E117.794
G1 X135.714 Y35.000 E119.698
G1 X137.619 Y34.524 E121.662
G1 X139.524 Y34.762 E123.581
G1 X141.667 Y34.524 E125.737
G1 X143.571 Y34.048 E127.701
G1 X145.476 Y33.571 E129.664
G1 X147.619 Y33.571 E131.807
G1 X149.762 Y33.095 E134.002
G1 X151.667 Y32.857 E135.922
G1 X153.571 Y32.619 E137.841
G1 X155.476 Y32.619 E139.746
G1 X157.381 Y32.143 E141.709
G1 X159.048 Y31.905 E143.393
G1 X160.714 Y31.667 E145.077
G1 X162.381 Y31.429 E146.760
G1 X163.810 Y30.952 E148.266
G1 X165.714 Y30.952 E150.171
G1 X167.619 Y30.714 E152.090
G1 X169.286 Y30.476 E153.774
G1 X171.190 Y30.476 E155.679
G1 X172.857 Y29.762 E157.492
G1 X175.000 Y29.524 E159.648
G1 X177.143 Y29.524 E161.791
G1 X179.286 Y28.810 E164.050
G1 X180.952 Y28.810 E165.716
G1 X183.095 Y28.333 E167.911
G1 X184.762 Y28.333 E169.578
G1 X186.667 Y28.333 E171.483
G1 X188.571 Y28.095 E173.402
G1 X190.476 Y28.095 E175.307
G1 X192.381 Y28.095 E177.212
G1 X194.286 Y27.857 E179.132
G1 X195.952 Y27.619 E180.815
G1 X197.857 Y27.381 E182.735
G1 X200.000 Y27.143 E184.891


G0 X173.095 Y39.524
G1 X173.095 Y39.524 E184.891
G1 X171.190 Y37.619 E187.584
G1 X169.286 Y37.381 E189.504
G1 X167.143 Y37.381 E191.647
G1 X165.476 Y37.381 E193.314
G1 X163.571 Y37.619 E195.233
G1 X161.667 Y37.381 E197.153
G1 X159.762 Y37.381 E199.058
G1 X157.857 Y37.619 E200.977
G1 X155.952 Y37.381 E202.897
G1 X154.048 Y39.048 E205.428


G0 X155.714 Y37.381
G1 X155.714 Y37.381 E205.428
G1 X153.810 Y39.286 E208.121
G1 X153.333 Y41.190 E210.085
G1 X153.095 Y43.095 E212.004
G1 X153.333 Y45.476 E214.397
G1 X155.000 Y45.714 E216.081
G1 X154.048 Y46.905 E217.605


G0 X154.048 Y45.476
G1 X154.048 Y45.476 E217.605
G1 X155.000 Y43.333 E219.950
G1 X155.238 Y41.429 E221.870
G1 X155.952 Y39.524 E223.904
G1 X157.381 Y38.810 E225.501
G1 X155.476 Y41.190 E228.551


G0 X170.000 Y37.381
G1 X170.000 Y37.381 E228.551
G1 X172.143 Y39.286 E231.418


G0 X196.667 Y81.905
G1 X196.667 Y81.905 E231.418
G1 X198.571 Y81.667 E233.337


G0 X157.381 Y89.286
G1 X157.381 Y89.286 E235.371
G1 X157.619 Y91.190 E237.291
G1 X157.619 Y93.333 E239.434
G1 X157.857 Y95.000 E241.117
G1 X157.857 Y96.905 E243.022
G1 X158.333 Y98.810 E244.986
G1 X158.333 Y100.714 E246.890
G1 X158.095 Y102.619 E248.810


G0 X158.571 Y103.333
G1 X158.571 Y103.333 E248.810
G1 X159.048 Y101.190 E251.005
G1 X159.286 Y99.524 E252.689
G1 X159.286 Y97.619 E254.593
G1 X159.048 Y95.476 E256.749
G1 X158.810 Y93.571 E258.669
G1 X158.571 Y91.429 E260.825
G1 X158.571 Y89.524 E262.730
G1 X156.429 Y89.762 E264.886


G0 X154.048 Y104.524
G1 X154.048 Y104.524 E264.886
G1 X155.238 Y106.190 E266.934
G1 X155.238 Y108.095 E268.839
G1 X156.190 Y110.000 E270.968
G1 X155.952 Y112.143 E273.124


G0 X158.571 Y111.429
G1 X158.571 Y111.429 E273.124
G1 X159.524 Y113.333 E275.254
G1 X159.762 Y115.476 E277.410
G1 X160.000 Y117.381 E279.330
G1 X160.000 Y119.286 E281.234
G1 X160.000 Y121.190 E283.139
G1 X160.238 Y123.095 E285.059
G1 X160.238 Y124.762 E286.725
G1 X160.476 Y126.667 E288.645
G1 X160.476 Y128.810 E290.788
G1 X160.476 Y130.714 E292.693
G1 X160.714 Y132.619 E294.612
G1 X160.714 Y134.524 E296.517
G1 X160.952 Y136.190 E298.201
G1 X161.429 Y138.095 E300.164
G1 X161.667 Y139.762 E301.848
G1 X162.143 Y141.667 E303.811
G1 X162.143 Y143.333 E305.478
G1 X162.143 Y145.238 E307.382
G1 X162.381 Y147.143 E309.302
G1 X162.619 Y149.286 E311.458
G1 X162.619 Y150.952 E313.125
G1 X162.381 Y152.857 E315.044
G1 X162.381 Y154.762 E316.949
G1 X162.619 Y156.667 E318.869
G1 X162.381 Y158.571 E320.788
G1 X162.381 Y160.714 E322.931
G1 X162.381 Y162.619 E324.836
G1 X162.619 Y164.524 E326.755
G1 X162.381 Y166.667 E328.911
G1 X162.619 Y168.571 E330.831
G1 X162.381 Y170.476 E332.751
G1 X162.619 Y172.143 E334.434
G1 X162.619 Y174.048 E336.339
G1 X162.381 Y175.952 E338.259
G1 X162.381 Y177.857 E340.163
G1 X162.381 Y180.000 E342.306
G1 X162.143 Y181.905 E344.226
G1 X162.143 Y183.810 E346.131
G1 X161.905 Y185.714 E348.050
G1 X161.667 Y187.857 E350.206
G1 X161.667 Y189.762 E352.111
G1 X161.905 Y191.667 E354.030
G1 X161.905 Y193.333 E355.697
G1 X161.905 Y195.238 E357.602
G1 X161.667 Y197.143 E359.522
G1 X161.905 Y198.810 E361.205


G0 X159.524 Y195.000
G1 X159.524 Y195.000 E361.205
G1 X159.048 Y193.095 E363.168
G1 X158.571 Y191.190 E365.132
G1 X157.857 Y189.048 E367.391
G1 X157.381 Y187.143 E369.354
G1 X156.667 Y185.238 E371.388


G0 X155.000 Y157.619
G1 X155.000 Y157.619 E371.388
G1 X152.857 Y157.381 E373.544
G1 X150.952 Y155.952 E375.925
G1 X149.048 Y154.762 E378.171


G0 X151.905 Y151.429
G1 X151.905 Y151.429 E378.171
G1 X150.000 Y148.571 E381.605
G1 X148.095 Y145.000 E385.653


G0 X147.619 Y145.476
G1 X147.619 Y145.476 E385.653
G1 X148.571 Y147.381 E387.783
G1 X149.524 Y149.286 E389.912
G1 X151.429 Y151.190 E392.606
G1 X151.429 Y153.095 E394.511
G1 X150.476 Y154.762 E396.430
G1 X151.905 Y157.143 E399.207
G1 X155.238 Y158.095 E402.674


G0 X154.762 Y158.333
G1 X154.762 Y158.333 E402.674
G1 X152.857 Y158.571 E404.593
G1 X150.952 Y158.571 E406.498
G1 X149.048 Y158.571 E408.403
G1 X147.143 Y158.571 E410.307
G1 X145.000 Y158.810 E412.464


G0 X132.381 Y160.476
G1 X132.381 Y160.476 E412.464
G1 X131.429 Y158.571 E414.593
G1 X131.190 Y156.667 E416.513
G1 X132.619 Y154.762 E418.894
G1 X135.476 Y152.857 E422.327
G1 X135.000 Y153.333 E423.001
G1 X133.333 Y154.524 E425.049
G1 X131.429 Y156.667 E427.916


G0 X136.905 Y144.762
G1 X136.905 Y144.762 E427.916
G1 X135.000 Y144.048 E429.950
G1 X133.095 Y143.095 E432.080
G1 X131.190 Y139.762 E435.919
G1 X129.286 Y136.429 E439.758
G1 X127.381 Y132.381 E444.232


G0 X126.667 Y130.476
G1 X126.667 Y130.476 E444.232
G1 X126.905 Y132.381 E446.151
G1 X127.857 Y134.286 E448.281
G1 X128.810 Y136.190 E450.411
G1 X130.000 Y138.333 E452.862
G1 X130.952 Y140.238 E454.991
G1 X131.905 Y142.143 E457.121
G1 X133.333 Y144.048 E459.502
G1 X137.143 Y145.714 E463.660


G0 X162.857 Y147.381
G1 X162.857 Y147.381 E463.660
G1 X163.095 Y149.286 E465.580
G1 X163.333 Y151.429 E467.736
G1 X163.095 Y153.333 E469.655
G1 X163.095 Y155.476 E471.798
G1 X163.095 Y157.619 E473.941
G1 X163.333 Y159.524 E475.861
G1 X163.333 Y161.429 E477.765
G1 X163.333 Y163.333 E479.670
G1 X163.571 Y165.000 E481.354
G1 X163.571 Y166.905 E483.259
G1 X163.810 Y168.810 E485.178
G1 X164.048 Y170.714 E487.098
G1 X163.571 Y172.619 E489.061
G1 X163.810 Y174.524 E490.981
G1 X163.571 Y176.429 E492.900
G1 X163.810 Y178.333 E494.820
G1 X163.810 Y180.238 E496.725
G1 X163.810 Y182.143 E498.629
G1 X163.810 Y184.048 E500.534
G1 X163.810 Y185.952 E502.439
G1 X163.810 Y187.857 E504.344
G1 X163.571 Y189.762 E506.263
G1 X163.333 Y191.667 E508.183
G1 X163.810 Y193.810 E510.378
G1 X164.048 Y195.714 E512.298
G1 X164.048 Y197.619 E514.202
G1 X164.048 Y199.286 E515.869




G0 X149.048 Y116.190
G1 X149.048 Y116.190 E521.849
G1 X147.143 Y113.810 E524.898
G1 X145.238 Y111.429 E527.948
G1 X143.333 Y109.286 E530.815
G1 X141.667 Y108.571 E532.628
G1 X139.524 Y105.714 E536.199


G0 X139.286 Y97.857
G1 X139.286 Y97.857 E536.199
G1 X138.810 Y99.762 E538.163
G1 X138.571 Y101.667 E540.082
G1 X138.571 Y103.571 E541.987
G1 X139.286 Y105.476 E544.021
G1 X140.000 Y107.143 E545.835
G1 X141.429 Y108.810 E548.030
G1 X144.048 Y110.000 E550.907
G1 X145.714 Y111.667 E553.264
G1 X146.905 Y113.571 E555.510
G1 X148.571 Y115.714 E558.225
G1 X149.762 Y117.619 E560.471
G1 X150.714 Y119.524 E562.600


G0 X155.952 Y108.095
G1 X155.952 Y108.095 E562.600
G1 X155.238 Y105.476 E565.315


G0 X159.524 Y110.476
G1 X159.524 Y110.476 E565.315
G1 X159.048 Y112.381 E567.278
G1 X159.048 Y114.524 E569.421
G1 X159.048 Y116.429 E571.326
G1 X159.048 Y118.333 E573.231
G1 X159.048 Y120.238 E575.136
G1 X159.048 Y122.143 E577.040
G1 X159.286 Y124.286 E579.196
G1 X159.286 Y126.190 E581.101
G1 X159.286 Y128.333 E583.244
G1 X159.286 Y130.238 E585.149
G1 X159.286 Y132.143 E587.054
G1 X159.286 Y134.048 E588.958
G1 X159.762 Y136.190 E591.153
G1 X159.762 Y138.095 E593.058
G1 X160.000 Y140.238 E595.214
G1 X160.000 Y142.143 E597.119
G1 X159.762 Y143.810 E598.803
G1 X160.000 Y145.952 E600.959
G1 X159.762 Y147.857 E602.878
G1 X159.762 Y149.762 E604.783
G1 X160.000 Y151.667 E606.703
G1 X160.238 Y153.333 E608.386
G1 X160.238 Y155.238 E610.291
G1 X160.476 Y157.143 E612.210
G1 X160.952 Y158.810 E613.944
G1 X160.952 Y160.714 E615.849
G1 X161.190 Y162.619 E617.768
G1 X161.190 Y164.286 E619.435
G1 X161.667 Y166.190 E621.398
G1 X161.429 Y168.333 E623.554
G1 X161.667 Y170.238 E625.474
G1 X161.667 Y172.143 E627.379
G1 X161.667 Y173.810 E629.045
G1 X161.429 Y175.714 E630.965
G1 X161.190 Y177.381 E632.648
G1 X161.429 Y179.286 E634.568
G1 X161.190 Y180.952 E636.252
G1 X160.714 Y182.857 E638.215
G1 X160.714 Y184.524 E639.882
G1 X160.952 Y186.667 E642.038
G1 X160.714 Y188.571 E643.957
G1 X160.952 Y190.476 E645.877
G1 X160.952 Y192.381 E647.782
G1 X160.952 Y194.524 E649.925
G1 X160.714 Y196.667 E652.081
G1 X161.190 Y198.571 E654.044


G0 X159.524 Y198.571
G1 X159.048 Y196.429 E660.525
G1 X158.333 Y194.524 E662.559
G1 X157.857 Y192.381 E664.754
G1 X157.381 Y190.476 E666.718
G1 X156.667 Y188.571 E668.752
G1 X156.190 Y186.667 E670.715
G1 X156.429 Y184.762 E672.635
G1 X156.429 Y183.095 E674.301
G1 X156.190 Y181.190 E676.221
G1 X156.190 Y179.524 E677.888
G1 X156.429 Y177.619 E679.807
G1 X156.429 Y175.714 E681.712
G1 X156.667 Y173.571 E683.868
G1 X156.905 Y171.667 E685.788
G1 X156.905 Y169.762 E687.692
G1 X156.667 Y167.857 E689.612
G1 X156.667 Y165.952 E691.517
G1 X156.905 Y164.048 E693.436
G1 X156.667 Y162.143 E695.356
G1 X155.476 Y161.429 E696.744
G1 X153.571 Y161.667 E698.664
G1 X151.667 Y161.905 E700.583
G1 X149.762 Y162.143 E702.503
G1 X147.857 Y162.619 E704.466
G1 X145.952 Y162.857 E706.386
G1 X144.048 Y163.095 E708.306
G1 X142.143 Y163.571 E710.269
G1 X140.000 Y163.333 E712.425
G1 X138.095 Y162.857 E714.388
G1 X136.190 Y162.381 E716.352
G1 X134.286 Y162.143 E718.271
G1 X132.619 Y162.381 E719.955
G1 X130.714 Y162.857 E721.918
G1 X128.810 Y163.333 E723.882
G1 X126.905 Y163.571 E725.801
G1 X125.000 Y163.810 E727.721
G1 X123.095 Y163.571 E729.640
G1 X121.190 Y162.857 E731.675
G1 X119.286 Y161.905 E733.804
G1 X117.381 Y159.048 E737.238
G1 X115.476 Y155.714 E741.077
G1 X113.571 Y152.619 E744.712
G1 X111.667 Y149.762 E748.146
G1 X109.762 Y146.190 E752.193
G1 X107.857 Y142.857 E756.032
G1 X105.952 Y138.333 E760.941


G0 X102.381 Y117.857
G1 X102.381 Y117.857 E760.941
G1 X100.476 Y114.524 E764.780
G1 X98.810 Y111.429 E768.295
G1 X96.905 Y110.476 E770.425
G1 X95.000 Y110.238 E772.345
G1 X93.095 Y110.238 E774.249
G1 X91.190 Y110.476 E776.169
G1 X89.286 Y110.476 E778.074
G1 X87.381 Y110.714 E779.993
G1 X85.476 Y110.952 E781.913
G1 X83.333 Y110.952 E784.056
G1 X81.429 Y111.190 E785.975
G1 X79.524 Y111.190 E787.880
G1 X77.619 Y111.190 E789.785
G1 X75.714 Y111.429 E791.704
G1 X74.048 Y111.667 E793.388
G1 X72.143 Y111.905 E795.308
G1 X70.476 Y111.905 E796.974
G1 X68.571 Y112.381 E798.938
G1 X66.667 Y112.619 E800.857
G1 X65.000 Y112.143 E802.591
G1 X62.857 Y112.381 E804.747
G1 X60.952 Y112.143 E806.666
G1 X59.048 Y112.381 E808.586
G1 X57.143 Y112.381 E810.491
G1 X55.000 Y112.381 E812.633
G1 X53.095 Y112.381 E814.538
G1 X51.429 Y112.619 E816.222
G1 X49.524 Y112.857 E818.141
G1 X47.619 Y112.857 E820.046
G1 X45.714 Y112.857 E821.951
G1 X43.810 Y113.095 E823.871
G1 X41.667 Y113.571 E826.066
G1 X39.762 Y113.810 E827.985
G1 X37.857 Y113.810 E829.890
G1 X35.952 Y114.048 E831.810
G1 X34.048 Y113.810 E833.729
G1 X32.143 Y114.286 E835.693
G1 X30.000 Y114.524 E837.849


G0 X41.667 Y111.905
G1 X41.667 Y111.905 E837.849
G1 X43.810 Y111.905 E839.991
G1 X45.714 Y111.667 E841.911
G1 X47.619 Y111.667 E843.816
G1 X49.524 Y111.429 E845.735
G1 X51.190 Y111.667 E847.419
G1 X53.333 Y111.429 E849.575
G1 X55.238 Y111.429 E851.480
G1 X57.381 Y111.190 E853.636
G1 X59.286 Y111.190 E855.541
G1 X61.190 Y110.952 E857.460
G1 X63.095 Y110.714 E859.380
G1 X65.000 Y110.476 E861.299
G1 X66.667 Y110.238 E862.983
G1 X68.333 Y109.762 E864.716
G1 X70.238 Y109.762 E866.621
G1 X72.143 Y110.000 E868.541
G1 X74.048 Y109.762 E870.460
G1 X75.714 Y109.762 E872.127
G1 X77.619 Y109.524 E874.046
G1 X79.524 Y109.286 E875.966


G0 X85.476 Y105.476
G1 X85.476 Y105.476 E875.966
G1 X83.810 Y105.714 E877.650
G1 X81.905 Y105.952 E879.569
G1 X79.762 Y105.952 E881.712
G1 X77.857 Y105.952 E883.617
G1 X75.952 Y106.190 E885.536
G1 X74.286 Y106.429 E887.220
G1 X72.619 Y106.190 E888.904
G1 X70.714 Y106.429 E890.823
G1 X68.810 Y106.429 E892.728
G1 X66.905 Y106.667 E894.648
G1 X64.762 Y106.667 E896.790


G0 X58.333 Y108.333
G1 X58.333 Y108.333 E896.790
G1 X60.238 Y108.333 E898.695
G1 X62.143 Y108.095 E900.615
G1 X63.810 Y108.333 E902.298
G1 X65.714 Y108.095 E904.218
G1 X67.619 Y108.333 E906.137
G1 X69.524 Y107.857 E908.101
G1 X71.190 Y107.619 E909.784
G1 X73.095 Y107.381 E911.704
G1 X74.762 Y107.381 E913.371
G1 X76.429 Y107.381 E915.037
G1 X78.333 Y107.143 E916.957
G1 X80.476 Y106.905 E919.113
G1 X82.381 Y106.667 E921.033
G1 X84.286 Y106.429 E922.952
G1 X86.429 Y106.429 E925.095
G1 X88.333 Y106.190 E927.015


G0 X98.810 Y111.429
G1 X98.810 Y111.429 E927.015
G1 X100.238 Y113.571 E929.590
G1 X100.952 Y115.476 E931.624
G1 X102.143 Y117.143 E933.672
G1 X102.619 Y119.048 E935.636
G1 X102.857 Y120.952 E937.555
G1 X103.095 Y123.095 E939.711
G1 X103.095 Y125.000 E941.616
G1 X103.333 Y126.905 E943.536
G1 X103.571 Y128.571 E945.219
G1 X103.571 Y130.476 E947.124
G1 X104.048 Y132.381 E949.088
G1 X104.524 Y134.286 E951.051
G1 X105.000 Y136.429 E953.246
G1 X105.476 Y138.333 E955.209
G1 X106.190 Y140.238 E957.244
G1 X107.143 Y142.143 E959.373
G1 X108.333 Y144.286 E961.825
G1 X109.524 Y146.190 E964.071
G1 X110.714 Y147.857 E966.119
G1 X111.667 Y149.524 E968.039
G1 X112.619 Y151.667 E970.384
G1 X113.810 Y153.571 E972.630
G1 X115.000 Y155.476 E974.876
G1 X115.952 Y157.381 E977.006
G1 X117.143 Y159.286 E979.252
G1 X118.333 Y161.190 E981.498
